packages/ui-icons/src/Basic/16/Mobile-base-station_16.svg

<svg xmlns="http://www.w3.org/2000/svg" viewBox="0 0 20 20"><path d="m2.5 5.48-.71-.71a9.52 9.52 0 0 1 13.44 0l-.71.71a8.51 8.51 0 0 0-12.02 0ZM6 9l.71.71a2.5 2.5 0 0 1 3.54 0L11 9a3.51 3.51 0 0 0-5 0Zm7.11-2.1a6.51 6.51 0 0 0-9.19 0l.71.71a5.51 5.51 0 0 1 7.78 0ZM19 16h-2a2.5 2.5 0 0 1-4.9 0H8a2.5 2.5 0 0 1-4.9 0H1V7h2v1H2v7h1.05A2.5 2.5 0 0 1 8 15h4.11A2.5 2.5 0 0 1 17 15h1v-2.76l-1.92-1.44-.93-2.8H14V7h1.86L17 10.19l2 1.56Zm-12-.5A1.5 1.5 0 1 0 5.5 17 1.5 1.5 0 0 0 7 15.5Zm9 0a1.5 1.5 0 1 0-1.5 1.5 1.5 1.5 0 0 0 1.5-1.5Z"/></svg>

<svg id="ready" xmlns="http://www.w3.org/2000/svg" viewBox="0 0 20 20"><title>Megaicons_work_16_1.8_cp</title><path d="M2.5,5.48l-.71-.71a9.52,9.52,0,0,1,13.44,0l-.71.71A8.51,8.51,0,0,0,2.5,5.48ZM6,9l.71.71a2.5,2.5,0,0,1,3.54,0L11,9A3.51,3.51,0,0,0,6,9ZM13.11,6.9a6.51,6.51,0,0,0-9.19,0l.71.71a5.51,5.51,0,0,1,7.78,0ZM19,16H17a2.5,2.5,0,0,1-4.9,0H8a2.5,2.5,0,0,1-4.9,0H1V7H3V8H2v7H3.05A2.5,2.5,0,0,1,8,15h4.11A2.5,2.5,0,0,1,17,15H18V12.24L16.08,10.8,15.15,8H14V7h1.86L17,10.19l2,1.56ZM7,15.5A1.5,1.5,0,1,0,5.5,17,1.5,1.5,0,0,0,7,15.5Zm9,0a1.5,1.5,0,1,0-1.5,1.5A1.5,1.5,0,0,0,16,15.5Z"/></svg>
